images/facebook.svg

<svg width="28" height="28" viewBox="0 0 28 28" fill="none" xmlns="http://www.w3.org/2000/svg">
<rect width="28" height="28" rx="14" fill="#4267B2"/>
<path d="M14.9347 23.3306V14.8159H17.7928L18.2207 11.4975H14.9347V9.37886C14.9347 8.41815 15.2015 7.76337 16.5793 7.76337L18.3365 7.76255V4.79468C18.0325 4.75438 16.9895 4.66406 15.776 4.66406C13.2425 4.66406 11.508 6.21042 11.508 9.05039V11.4976H8.64258V14.816H11.508V23.3307L14.9347 23.3306Z" fill="white"/>
</svg>

<svg xmlns="http://www.w3.org/2000/svg" width="28" height="28" fill="none"><rect width="28" height="28" fill="#4267B2" rx="14"/><path fill="#fff" d="M14.935 23.33v-8.514h2.858l.428-3.318h-3.286v-2.12c0-.96.266-1.615 1.644-1.615h1.758V4.795c-.305-.04-1.348-.13-2.561-.13-2.533 0-4.268 1.545-4.268 4.385v2.448H8.643v3.318h2.865v8.515z"/></svg>
